X:29
T: Graf und Nonne (Die Nonne)
N: Q0155b
O: Mitteleuropa, Deutschland (BRD) , Franken, Haselbach v.d. Rhoen
N: Gleiche Informantin wie in Q0155a.
R: Ballade, Standesunterschied, vergebliche Werbung, Liebe, Klage
M: 3/4
L: 1/8
K: F
C2 | F3GAB | A2F2
FG | A3GAB | c4
c2 | d3cBd | c2A2
FA | c3ABc | A2z2
F2 | d3dfd | c2A2
FA | c3dcB | A2z2

@@@ Tune index: 1739
